!!!!SEGMENT: pl-sa--400-a-viii-40--005-002_pugnani-gaetano--trio-in-a-adagio.krn
!!!cenid: 17xx:2033
!!!COM: Pugnani, Gaetano
!!!COM-rismid: pe30002608
!!!CDT: 1731/11/27-1798/07/15
!!!CNT: Italian
!!!OPR: Trio in A
!!!OTL: Adagio
!!!OMV: 002
!!!PDT:
!!!AGN: Secular
!!!SMS-siglum: PL-SA
!!!SMS-shelfmark: 400/A VIII 40
!!!SMS-shelfwork: 005-002 M
!!!SMS-variant:
!!!SMS-altvar:
!!!NIFC-rismid: 1001104668
!!!URL-scan: http://bc.bdsandomierz.pl/dlibra/publication/1703/edition/1671/content
!!!ONB-nifc: UWAGA: No 5to. Części: 1. bez podanego tempa, 2. Adagio, 3. Allegro
**kern	**kern	**dynam	**kern
*part3	*part2	*part2	*part1
*staff3	*staff2	*	*staff1
*Iempty	*Ivioln	*	*Ivioln
*I"Baſso	*I"Violino 2do	*	*I"Violino 1mo
*I'b	*I'vl 2	*	*I'vl 1
*clefF4	*clefG2	*	*clefG2
*Trd0c0	*	*	*
*k[]	*k[]	*	*k[]
*a:	*a:	*	*a:
*M2/2	*M2/2	*	*M2/2
*met(c|)	*met(c|)	*	*met(c|)
=1	=1	=1	=1
*	*	*	*2\right
!	!	!	!LO:TX:a:B:t=Adagio
!LO:TX:t=P:problem:zgodnie z RISM "b part missing."	!LO:TX:a:B:t=Adagio	!	!
1ryy	4a'\	.	2ee\
.	4b'\	.	.
.	4cc'\	.	8ee\L
.	.	.	16aa\L
.	.	.	16ee\JJ
.	4dd'\	.	4ffM\
=2	=2	=2	=2
1ryy	4cc\	.	8ee\L
.	.	.	16r
.	.	.	16a\Jk
.	4c/	.	16.a\LL
.	.	.	32cc\K
.	.	.	8qqcc/
.	.	.	16b\
.	.	.	16a\JJ
*	*	*	*Xtuplet
.	4d/	.	24b\LL
.	.	.	(>24ff\
.	.	.	24ee\
.	.	.	24dd\
.	.	.	24cc\
.	.	.	24b\JJ)
.	.	.	8qqa/
.	4e/	.	4g#X/
=3	=3	=3	=3
1ryy	8c/L	.	(16a/LL
.	.	.	16e/)
.	8a/	.	(16cc/
.	.	.	16a/JJ)
.	8g#X/	.	(16b/LL
.	.	.	16e/)
.	8e/J	.	(16dd/
!	!	!	!LO:TX:t=P:problem:zbędna kreska taktowa
.	.	.	16b/JJ)
.	8a/L	.	4cc\
.	8a/	.	.
.	8gn/	.	4cc#X\
.	8g/J	.	.
=4	=4	=4	=4
!	!	!	!LO:N:vis=8
1ryy	8f#X/L	.	8.dd\L
.	8f#/	.	.
.	.	.	16dd#X\Jk
.	8fn/	.	4dd#\
.	8f/J	.	.
.	4e/	.	8.ee\L
.	.	.	16ff\Jk
.	4r	.	16ee\LL
.	.	.	16ddn\
.	.	.	8qdd/
.	.	.	16cc\
.	.	.	16b\JJ
=5	=5	=5	=5
*	*2\right	*	*
!	!	!LO:DY:a	!
1ryy	2ee\	p	4a\
.	.	.	4b\
.	8ee\L	.	4cc\
.	(16aa\L	.	.
.	16ee\JJ)	.	.
.	4ff\	.	4dd\
=6	=6	=6	=6
1ryy	8ee\L	.	4cc\
.	16r	.	.
.	16b\Jk	.	.
.	16a\LL	.	4c/
.	16cc\	.	.
.	8qcc/	.	.
.	16b\	.	.
.	16a\JJ	.	.
!	!	!	!LO:LB:g=original
=-	=-	=-	=-
*	*Xtuplet	*	*
.	24b\LL	.	4d/
.	(>24ff\	.	.
.	24ee\	.	.
.	24dd\	.	.
.	24cc\	.	.
.	24b\JJ)	.	.
.	8qqa/	.	.
.	4g#X/	.	4e/
=7	=7	=7	=7
1ryy	(16a/LL	.	8c/L
.	16e/)	.	.
.	(16cc/	.	8a/
.	16a/JJ)	.	.
.	(16b/LL	.	8g#X/
.	16e/)	.	.
.	(16dd/	.	8e/J
.	16b/JJ)	.	.
.	8qqdd/	.	.
.	2cc\	.	8a/L
.	.	.	8a/
.	.	.	8d#X/
.	.	.	8d#/J
=8	=8	=8	=8
.	8qqcc/	.	.
1ryy	2b\	.	2e/
.	4ee\	.	2r
.	4ddM\	.	.
=9	=9	=9	=9
1ryy	(16cc#X\LL	.	4aa\
.	16ee\J)	.	.
.	8a\J	.	.
.	16r	.	4gg\
.	16ee\KL	.	.
.	8ee\J	.	.
.	4dd\	.	32ff#X\LL
.	.	.	32aa\J
.	.	.	16dd\J
.	.	.	8r
!	!	!	!LO:TX:t=P:problem:8. i 16 w jednym
.	4ccn\	.	8.ff#\L
!	!	!	!LO:N:vis=8
.	.	.	16ff#m\Jk
=10	=10	=10	=10
1ryy	16b\LL	.	4gg\
.	16dd\J	.	.
.	8g\J	.	.
!	!LO:LB:g=original	!	!
=-	=-	=-	=-
.	16r	.	4ffn\
.	16b\KL	.	.
.	8b\J	.	.
.	8cc\	.	16ee\LL
.	.	.	16gg\J
.	8r	.	8cc\J
.	8e/	.	16r
.	.	.	16gg\LL
.	.	.	8qqgg/
.	8r	.	16ff\
.	.	.	16ee\JJ
=11	=11	=11	=11
.	.	.	8qee/
*	*tremolo	*	*
1ryy	8f/L	.	16dd\LL
.	.	.	16cc#X\
.	8f/	.	16dd\
.	.	.	16aa\JJ
.	8f/	.	4aa\
.	8f/J	.	.
*	*Xtremolo	*	*
!	!	!LO:DY:a:t=p&colon;	!
.	8f/L	p	16aa\LL
.	.	.	16gg\
.	8f/	.	16ff\
.	.	.	8qff
.	.	.	16ee\JJ
.	8f#X/	.	(16ee\LL
.	.	.	16dd\)
.	8f#/J	.	(16dd\
.	.	.	16cc#\JJ)
=12	=12	=12	=12
*	*	*	*^
!	!	!	!LO:TUP:a:problem:klamra łukowa	!
1ryy	8g/	.	24b\LL	2.ryy
.	.	.	24cc\	.
.	.	.	24b\JJ	.
!	!	!	!LO:TUP:a:problem:klamra łukowa	!
.	8r	.	24dd\LL	.
.	.	.	24ee\	.
.	.	.	24dd\JJ	.
.	8g/	.	(16ff\LL	.
.	.	.	16ee\)	.
!	!LO:TX:t=P:problem:zbędna kreska taktowa	!	!	!
.	8r	.	(16ee\	.
.	.	.	16dd\JJ)	.
!	!LO:TUP:a:problem:klamra łukowa	!	!	!
.	24b\LL	.	8g/	.
.	24cc\	.	.	.
.	24b\JJ	.	.	.
!	!LO:TUP:a:problem:klamra łukowa	!	!	!
.	24dd\LL	.	8r	.
.	24ee\	.	.	.
.	24dd\JJ	.	.	.
!	!	!	!LO:LB:g=original	!LO:LB:g=original
=-	=-	=-	=-	=-
.	16ff\LL	.	16dd/LL	4g\
.	16ee\	.	16cc/	.
.	8qqff/	.	.	.
.	(16ee\	.	16cc/	.
.	16dd\JJ)	.	16b/JJ	.
=13	=13	=13	=13	=13
!	!	!	!LO:TUP:a:problem:klamra łukowa	!
1ryy	8g/	.	24cc\LL	2.ryy
.	.	.	24dd\	.
.	.	.	24cc\JJ	.
!	!	!	!LO:TUP:a:problem:klamra łukowa	!
.	8r	.	24ee\LL	.
.	.	.	24ff\	.
.	.	.	24ee\JJ	.
.	8g/	.	16gg\LL	.
.	.	.	16ff\	.
.	.	.	8qgg/	.
.	8r	.	16ff\	.
.	.	.	16ee\JJ	.
!	!LO:TUP:a:problem:klamra łukowa	!	!	!
.	24cc\LL	.	8g/	.
.	24dd\	.	.	.
.	24cc\JJ	.	.	.
!	!LO:TUP:a:problem:klamra łukowa	!	!	!
.	24ee\LL	.	8r	.
.	24ff\	.	.	.
.	24ee\JJ	.	.	.
.	(16gg\LL	.	16ee/LL	4g\
.	16ff\)	.	16dd/	.
.	8qqgg/	.	.	.
.	(16ff\	.	16dd/	.
.	16ee\JJ)	.	16cc/JJ	.
=14	=14	=14	=14	=14
!	!	!	!LO:TUP:b:problem:klamra łukowa	!
1ryy	8g/	.	24g/LL	4ryy
.	.	.	24a/	.
.	.	.	24g/JJ	.
!	!	!	!LO:TUP:a:problem:klamra łukowa	!
.	24g/LL	.	24b\LL	.
.	24a/	.	24cc\	.
.	24g/JJ	.	24b\JJ	.
*	*	*	*v	*v
!	!LO:TX:t=P:problem:brakujący fragment	!	!LO:TUP:a:problem:klamra łukowa
.	8ryy	.	24ee\LL
.	.	.	24ff\
.	.	.	24ee\JJ
!	!LO:TUP:a:problem:klamra łukowa	!	!LO:TUP:a:problem:klamra łukowa
.	24dd\LL	.	24ff\LL
.	24ee\	.	24gg\
.	24dd\JJ	.	24ff\JJ
.	8ff\	.	8aa\
.	4ee\	.	4gg\
.	8dd\	.	8ff\
=15	=15	=15	=15
1ryy	8cc\	.	8ee\
.	8r	.	4ccc\
.	8e/	.	.
.	8r	.	(16cc\LL
.	.	.	16ee\JJ)
.	8f/	.	(16dd\LL
.	.	.	16aa\)
.	8r	.	(16gg\
.	.	.	16ff\JJ)
.	8g/	.	(16ee\LL
.	.	.	16gg\)
.	8r	.	(16b\
.	.	.	16dd\JJ)
=16	=16	=16	=16
1ryy	8d/	.	8cc\
.	8r	.	4ccc\
.	8e/	.	.
.	8r	.	(16cc\LL
.	.	.	16ee\JJ)
.	8f/	.	16dd\LL
.	.	.	16aa\
.	.	.	8qaa/
.	8r	.	16gg\
.	.	.	16ff\JJ
.	8g/	.	(16ee\LL
.	.	.	16gg\)
.	8r	.	(16cc\
.	.	.	16ee\JJ)
!	!LO:LB:g=original	!	!
=17	=17	=17	=17
!	!LO:TX:t=P:problem:mixed beam	!	!
1ryy	8c/L	.	(1cc
.	8cc'\	.	.
.	8cc'\	.	.
.	8cc'\J	.	.
.	8b-X'\L	.	.
.	8b-'\	.	.
.	8b-'\	.	.
.	8b-'\J	.	.
!	!	!	!LO:LB:g=original
=18	=18	=18	=18
1ryy	8a/L	.	4cc#X\)
.	8a/	.	.
.	8g/	.	(16cc#\LL
.	.	.	16ee\)
.	.	.	8qqee/
.	8g/J	.	16dd\
.	.	.	16cc#\JJ
.	8f/L	.	8dd\L
.	8f/	.	16r
.	.	.	16ff\Jk
.	.	.	8qqff/
.	8c#X/	.	8ee\L
.	8c#/J	.	16r
.	.	.	16gg\Jk
=19	=19	=19	=19
.	.	.	8qgg/
*	*tremolo	*	*
1ryy	8d/L	.	8.ff\L
.	8d/	.	.
.	.	.	(32ee\LL
.	.	.	32ff\JJJ)
.	8d/	.	4aa\
.	8d/J	.	.
*	*Xtremolo	*	*
.	8f/L	.	16aa\LL
.	.	.	16gg\
.	8f/	.	16ff\
.	.	.	16ee\JJ
.	8f/	.	8dd\L
.	8f#X/J	.	8cc\J
=20	=20	=20	=20
.	.	.	8qqcc/
1ryy	8g/L	.	8.b\L
.	8g/	.	.
.	.	.	16dd\Jk
.	.	.	8qqdd/
.	8e/	.	8.cc\L
.	8e/J	.	.
.	.	.	16ee\Jk
.	.	.	8qqee/
.	8B/L	.	8.dd\L
.	8B/	.	.
.	.	.	16ff\Jk
.	.	.	8qqff/
.	8c/	.	8.ee\L
.	8c/J	.	.
.	.	.	16gg\Jk
=21	=21	=21	=21
1ryy	8d/L	.	16ff\LL
.	.	.	16ee\
.	8d/	.	16dd\
.	.	.	16cc\JJ
.	8d/	.	8b\L
.	8d#X/J	.	8a\J
.	8e/L	.	8g#X\L
.	8g#X/	.	16ee\L
.	.	.	16b\JJ
.	8a/	.	4ccM\
.	8d#X/J	.	.
=22	=22	=22	=22
1ryy	8e/L	.	8b\L
.	8g#X/	.	16.ee\L
.	.	.	32b\JJk
.	8a/	.	4cc\
.	8d#X/J	.	.
.	8.e/L	.	4b\
.	16f/Jk	.	.
.	16e/LL	.	4r
.	16d#/	.	.
.	16c/	.	.
.	16B/JJ	.	.
=23	=23	=23	=23
1ryy	4A'/ 4e 4a	.	2ee\
.	4b'\	.	.
.	4cc'\	.	8ee\L
.	.	.	16aa\L
.	.	.	16ee\JJ
.	4dd'\	.	4ffM\
=24	=24	=24	=24
1ryy	4cc\	.	8ee\L
.	.	.	16r
.	.	.	16a\Jk
!	!	!	!LO:LB:g=original
=-	=-	=-	=-
.	4c/	.	16a\LL
.	.	.	16cc\
.	.	.	16b\
.	.	.	16a\JJ
.	4d/	.	24b\LL
.	.	.	(>24ff\
.	.	.	24ee\
.	.	.	24dd\
.	.	.	24cc\
.	.	.	24b\JJ)
.	.	.	8qa/
.	4e/	.	4g#X/
=25	=25	=25	=25
1ryy	2ee\	.	4a\
.	.	.	4b\
.	8ee\L	.	4cc\
.	16.aa\L	.	.
.	32ee\JJk	.	.
.	4ff\	.	4dd\
=26	=26	=26	=26
1ryy	8ee\L	.	4cc\
.	16r	.	.
.	16a\Jk	.	.
.	16.a\LL	.	4c/
.	32cc\K	.	.
.	16.b\	.	.
.	32a\JJk	.	.
!	!LO:LB:g=original	!	!
=-	=-	=-	=-
.	16b\LL	.	4d/
.	16dd\JJ	.	.
.	4cc\	.	.
.	.	.	4d#X/
.	16b\LL	.	.
.	16a\JJ	.	.
=27	=27	=27	=27
1ryy	(8g#X\L	.	4e/
.	8b\)	.	.
.	(8a\	.	8r
.	8cc\J)	.	8a/
.	(8b\L	.	(8g#X\L
.	8dd\)	.	8b\J)
.	(8cc\	.	(8a\L
.	8b\J)	.	8cc\J)
=28	=28	=28	=28
1ryy	(8g#X\L	.	4b\
.	8b\)	.	.
.	(8a\	.	8r
.	8cc\J)	.	8a/
.	(8b\L	.	(8g#X/L
.	8dd\)	.	8b/J)
.	(8cc\	.	(8a\L
.	8a\J)	.	8cc\J)
=29	=29	=29	=29
1ryy	8g#X/L	.	(8b\L
.	8b/	.	8ee\J)
.	8a/	.	(8cc\L
.	8cc/J	.	8ee\J)
.	8b\L	.	4dd\
.	8b\	.	.
.	8a\	.	4dd\
.	8a\J	.	.
=30	=30	=30	=30
*	*^	*	*
1ryy	2b/	2g#X\	.	2e/ 2dd
.	2r	2ryy	.	2r
*	*v	*v	*	*
!	!	!	!LO:PB:g=original
=31	=31	=31	=31
1ryy	4a/	.	16cc\LL
.	.	.	16a\J
.	.	.	8ee\J
.	4c/	.	(>16ee\LL
.	.	.	16cc\)
.	.	.	(>16aa\
.	.	.	16ee\JJ)
.	4d/	.	16ff\LL
.	.	.	16dd\
.	.	.	8qqdd/
.	.	.	16cc\
.	.	.	16b\JJ
.	.	.	8qqa/
.	4e/	.	4g#X/
=32	=32	=32	=32
1ryy	16cc\LL	.	4a/
.	16a\J	.	.
.	8ee\J	.	.
.	(16ee\LL	.	4c/
.	16cc\)	.	.
.	(16aa\	.	.
.	16ee\JJ)	.	.
.	16ff\LL	.	4d/
.	16dd\	.	.
.	8qdd/	.	.
.	16cc\	.	.
.	16b\JJ	.	.
.	8qa/	.	.
.	4g#X/	.	4e/
=33	=33	=33	=33
1ryy	8a/	.	4A/
.	4aa\	.	.
.	.	.	4r
.	8gg\	.	.
.	8ff\	.	8r
.	4ff\	.	4aa\
.	8ee\	.	8gg\
=34	=34	=34	=34
1ryy	8dd\	.	8ff\
.	4dd\	.	4ff\
.	8cc\	.	8ee\
!	!LO:TX:t=P:problem:mixed beam	!	!
.	8b\L	.	(8dd\L
.	8a\	.	8cc\
.	8d/	.	8b\
.	8d#X/J	.	8a\J)
=35	=35	=35	=35
*	*	*	*^
1ryy	8e/L	.	4g#X/	2ryy
.	8dn/J	.	.	.
.	8.c/L	.	8.a/L	.
.	16d/Jk	.	16b/Jk	.
.	.	.	8qqcc/	.
.	4e/	.	2b/	2e\
.	4e/	.	.	.
*	*	*	*v	*v
=36	=36	=36	=36
1ryy	2A/	.	2A/ 2e 2a
.	2r	.	2r
==||	==||;	=||	==||;
*-	*-	*-	*-
!!!system-decoration: [(s1,s2,s3)]
!!!RDF**kern: < = below
!!!RDF**kern: > = above
!!!AIN: 1 empty 2 violn
!!!ENC: Tomasz Grochalski
!!!END: 2021-05-27
!!!ENC: Marta Chmielewska
!!!END: 2021-10-29
